flags/zw.svg

<svg width="512" height="512" viewBox="0 0 512 512" fill="none" xmlns="http://www.w3.org/2000/svg">
<rect y="200.348" width="512" height="111.304" fill="var(--flag-palette-black, #333333)"/>
<rect y="58.502" width="512" height="99.5621" fill="var(--flag-palette-yellow, #ffda44)"/>
<rect y="348.068" width="512" height="111.295" fill="var(--flag-palette-yellow, #ffda44)"/>
<path fill-rule="evenodd" clip-rule="evenodd" d="M512 0H0V72.1891H512V0ZM512 439.811H0V512H512V439.811Z" fill="var(--flag-palette-green, #6da544)"/>
<path fill-rule="evenodd" clip-rule="evenodd" d="M512 144.379H0V216.568H512V144.379ZM512 295.434H0V367.623H512V295.434Z" fill="var(--flag-palette-bright-red, #d80027)"/>
<path d="M0 0V512L256 256L0 0Z" fill="var(--flag-palette-white, #eeeeee)"/>
<path d="M31.4807 0H0L256 256L0 512H31.4807L287.481 256L31.4807 0Z" fill="var(--flag-palette-black, #333333)"/>
<path d="M102.925 189.217L119.5 240.233H173.145L129.747 271.765L146.323 322.783L102.925 291.252L59.526 322.783L76.104 271.765L32.707 240.233H86.349L102.925 189.217Z" fill="var(--flag-palette-bright-red, #d80027)"/>
<path d="M148.519 260.174L105.321 244.87C105.321 244.87 102.129 214.927 101.936 213.912C100.47 206.189 93.683 200.348 85.533 200.348C76.313 200.348 68.837 207.823 68.837 217.044C68.837 218.573 69.06 220.046 69.445 221.454L57.333 233.647H78.869C78.869 256 62.189 256 62.189 278.261L71.442 300.522H127.094L136.37 278.261H136.366C137.295 276.125 137.859 273.922 138.092 271.721C146.088 268.487 148.519 260.174 148.519 260.174Z" fill="var(--flag-palette-dark-yellow, #ffc635)"/>
</svg>

<svg xmlns="http://www.w3.org/2000/svg" width="512" height="512" fill="none"><path fill="var(--flag-palette-black, #333333)" d="M0 200.3h512v111.3H0z"/><path fill="var(--flag-palette-yellow, #ffda44)" d="M0 58.5h512v99.6H0zm0 289.6h512v111.3H0z"/><path fill="var(--flag-palette-green, #6da544)" fill-rule="evenodd" d="M512 0H0v72.2h512zm0 439.8H0V512h512z" clip-rule="evenodd"/><path fill="var(--flag-palette-bright-red, #d80027)" fill-rule="evenodd" d="M512 144.4H0v72.2h512zm0 151H0v72.2h512z" clip-rule="evenodd"/><path fill="var(--flag-palette-white, #eeeeee)" d="M0 0v512l256-256z"/><path fill="var(--flag-palette-black, #333333)" d="M31.5 0H0l256 256L0 512h31.5l256-256z"/><path fill="var(--flag-palette-bright-red, #d80027)" d="m103 189.2 16.5 51h53.6l-43.4 31.6 16.6 51-43.4-31.5-43.4 31.5 16.6-51-43.4-31.6h53.6z"/><path fill="var(--flag-palette-dark-yellow, #ffc635)" d="m148.5 260.2-43.2-15.3-3.4-31a16.7 16.7 0 1 0-32.5 7.6l-12 12.1h21.5c0 22.4-16.7 22.4-16.7 44.7l9.2 22.2h55.7l9.3-22.2q1.4-3.3 1.7-6.6c8-3.2 10.4-11.5 10.4-11.5"/></svg>
